icons-dark/actions/24/draw-triangle3.svg

<svg version="1.1" viewBox="0 0 24 24" xmlns="http://www.w3.org/2000/svg">
    <defs>
        <style type="text/css" id="current-color-scheme">.ColorScheme-Text {
        color:#eff0f1;
      }</style>
    </defs>
    <path class="ColorScheme-Text" d="m12 4-8.3554688 14.857422-0.6445312 1.142578h1.125 15.574219 1.300781l-0.644531-1.142578-8.355469-14.857422zm0 2.3125 7.054688 12.544922h-14.273438l7.21875-12.544922z" fill="currentColor"/>
    <path d="m4.3681711 19.075232c1.0329208-1.89149 7.6939619-13.777059 7.7113739-13.759718 0.01319 0.013133 1.72971 3.1513397 3.814497 6.9737923 2.084788 3.822452 3.797827 6.962389 3.806755 6.977639 0.0089 0.01525-3.464224 0.02773-7.718114 0.02773h-7.7343447z" class="ColorScheme-Text" fill="currentColor" fill-opacity=".50196078"/>
</svg>

<svg xmlns="http://www.w3.org/2000/svg" viewBox="0 0 24 24">
  <defs id="defs3051">
    <style type="text/css" id="current-color-scheme">
      .ColorScheme-Text {
        color:#eff0f1;
      }
      </style>
  </defs>
 <path style="fill:currentColor;fill-opacity:1;stroke:none" 
     d="M 12 4 L 3.6445312 18.857422 L 3 20 L 4.125 20 L 19.699219 20 L 21 20 L 20.355469 18.857422 L 12 4 z M 12 6.3125 L 19.054688 18.857422 L 4.78125 18.857422 L 12 6.3125 z "
     class="ColorScheme-Text"
     />
</svg>
